X: 20892
M: 2/4
L: 1/16
K: F
V: 1 name="5"
c2(c2 a2)f2 | c2(c2 Bd)BG | F2GF EFGA | BAdc cBAB |\
c2(c2 a2)f2 | c2c2 cdBG | E2F2 GABd | cABG F2 H|]
c2(c2 =B2)B2 | d2(d2 g2)e2 | c2(c2a2)g2 | (gf)(ed) edc=B |\
c2c2 =B2B2 | d2(d2 g)fed | c=BcB cagf | edc=B "^D.C."c2 |]
c2c2 c_agf | efge f4 | c2c2 (cB)_dc | dBB_A A2G2 |\
c2c2 c_agf | efge f2fg | a2ag fgf_e | _dcd=B "^D.C."c2 |]


